X:41
T:GB/7a/41 The Bold Fisherman Version 2 of 3 
C:Mr. Locke (c. 70) Rollesby, Norfolk, IV. 10 
P:F.W. (Jekyll) & G.S.K. B(utterworth)
C:Transcribed by Simon Furey and Lewis Jones
L:1/8
M:5/4
I:linebreak $
K:G
D2 | B2 B2 (3BcB A2 G2 | E2 E2 E4 D2 |[M:4/4]"^(a)" G3 A BABc |[M:3/4] d4 d2 |$
[M:5/4] e2 d2 (3BcB A2 G2 | d2 c2 E3 F G2 | c2 B2 D3 E F2 | G4- G4 |]$"^(a) var." G3 A BG Bd |

